Assets/Icons/interaction/map.svg

<svg enable-background="new 0 0 60 60" viewBox="0 0 60 60" xmlns="http://www.w3.org/2000/svg"><path d="m57.13 7.46-17.5-5.83c-.41-.14-.85-.14-1.26 0l-17.37 5.79-16.87-5.62c-1.29-.44-2.63.53-2.63 1.89v40.1c0 4.95 3.17 9.35 7.86 10.91l11 3.67c.41.14.85.14 1.26 0l17.38-5.79 16.87 5.62c1.3.43 2.63-.53 2.63-1.9v-46.94c0-.86-.55-1.62-1.37-1.9zm-37.63 47.46-9.19-3.06c-3.48-1.16-5.81-4.4-5.81-8.06v-38.72l15 5zm18-5-15 5v-44.84l15-5zm18 5-15-5v-44.84l15 5z"/></svg>

<?xml version="1.0" encoding="utf-8"?>
<!-- Generator: Adobe Illustrator 21.1.0, SVG Export Plug-In . SVG Version: 6.00 Build 0)  -->
<svg version="1.1" id="eps" xmlns="http://www.w3.org/2000/svg" xmlns:xlink="http://www.w3.org/1999/xlink" x="0px" y="0px"
	 viewBox="0 0 60 60" style="enable-background:new 0 0 60 60;" xml:space="preserve">
<path d="M57.13,7.46l-17.5-5.83c-0.41-0.14-0.85-0.14-1.26,0L21,7.42L4.13,1.8C2.84,1.36,1.5,2.33,1.5,3.69v40.1
	c0,4.95,3.17,9.35,7.86,10.91l11,3.67c0.41,0.14,0.85,0.14,1.26,0L39,52.58l16.87,5.62c1.3,0.43,2.63-0.53,2.63-1.9V9.36
	C58.5,8.5,57.95,7.74,57.13,7.46z M19.5,54.92l-9.19-3.06C6.83,50.7,4.5,47.46,4.5,43.8V5.08l15,5V54.92z M37.5,49.92l-15,5V10.08
	l15-5V49.92z M55.5,54.92l-15-5V5.08l15,5V54.92z"/>
</svg>
